svg/message_text_outline.svg

<svg xmlns="http://www.w3.org/2000/svg" viewBox="0 0 24 24"><path d="M20 2a2 2 0 0 1 2 2v12a2 2 0 0 1-2 2H6l-4 4V4a2 2 0 0 1 2-2zM4 4v13.17L5.17 16H20V4zm2 3h12v2H6zm0 4h9v2H6z"/></svg>

<?xml version="1.0" encoding="UTF-8"?><!DOCTYPE svg PUBLIC "-//W3C//DTD SVG 1.1//EN" "http://www.w3.org/Graphics/SVG/1.1/DTD/svg11.dtd"><svg xmlns="http://www.w3.org/2000/svg" xmlns:xlink="http://www.w3.org/1999/xlink" version="1.1" id="mdi-message-text-outline" width="24" height="24" viewBox="0 0 24 24"><path d="M20,2A2,2 0 0,1 22,4V16A2,2 0 0,1 20,18H6L2,22V4C2,2.89 2.9,2 4,2H20M4,4V17.17L5.17,16H20V4H4M6,7H18V9H6V7M6,11H15V13H6V11Z" /></svg>
